X: 245
T: Xiao guafu Shangfen
L: 1/8
M: 2/4
K: G
d2A A [I:setbarnb 1]| 
d2e g | 
d2A d | 
dA2G | 
EG2A | 
Ad2A | 
G2A E | 
d4 | 
d EG2 | 
zA2d | 
d2A G | 
AE2D | 
GG2A | 
Ad2A | 
G G A E | 
D4 | 
GG2B | 
A2E D | 
GG2A | 
d2d A | 
G G A E | 
D4 |]

@@@ Tune index: 9119
